!!!!SEGMENT: pl-wn--mus-iii-105-719-1--002_zelenski-wladyslaw--25-preludyi-op-38-2-quasi-allegretto.krn
!!!cenid: 18xx:3735
!!!COM: Żeleński, Władysław
!!!COM-rismID:
!!!CDT:
!!!CNT:
!!!GTL: 25 preludyi op. 38
!!!OTL: 2. Quasi Allegretto
!!!PDT: 1881
!!!AGN:
!!!SMS-siglum: PL-Wn
!!!SMS-shelfmark: Mus.III.105.719/1
!!!SMS-shelfwork: 002 G
!!!SMS-variant:
!!!SMS-altvar:
!!!NIFC-rismSourceID:
!!!NIFC-islandoraID:
!!!URL-pdf-islandora:
!!!URL-scan: https://polona.pl/item/25-preludyi-2-3-i-4-glosowych-na-organ-lub-fisharmonike-do-uzytku-organistow-i,ODE1NjEwMzc/2/#info:metadata @EN{Scan on Polona} @PL{Skany w portalu Polona}
!!!ONB-nifc:
!!!AIN: 2 organ
!!!key:
**kern	**fing	**dynam	**kern	**fing	**dynam
*part2	*part2	*part2	*part1	*part1	*part1
*staff2	*	*	*staff1	*	*
*I"organ lub fisharmonika	*	*	*I"organ lub fisharmonika	*	*
*I'org	*	*	*I'org	*	*
*ICklav	*	*	*ICklav	*	*
*Iorgan	*	*	*Iorgan	*	*
*clefF4	*	*	*clefG2	*	*
*k[]	*	*	*k[]	*	*
*a:	*	*	*a:	*	*
*M3/4	*	*	*M3/4	*	*
=1	=1	=1	=1	=1	=1
!	!	!	!LO:TX:a:B:t=Allegretto	!	!
!	!	!	!LO:TX:a:B:t=Quasi Allegretto.	!	!
(4AA/	3	.	4r	.	.
4BB/	.	.	4r	.	.
4C/	.	.	[4e/	.	.
=2	=2	=2	=2	=2	=2
4BB/	.	.	2e/]	.	.
4C/	.	.	.	.	.
4GG#X/)	.	.	[<4e/	.	.
=3	=3	=3	=3	=3	=3
!LO:TX:b:i:t=sempre legato	!	!	!	!	!
4AA/	.	.	8e/L]	.	.
.	.	.	(8ee/	.	.
4BB/	.	.	8dd/	.	.
.	.	.	8cc/	.	.
4C/	.	.	8b/	.	.
.	.	.	8a/J	.	.
=4	=4	=4	=4	=4	=4
4BB/	4	.	4.dd\	5	.
4E\	.	.	.	.	.
.	.	.	8b/L	3	.
4D\	.	.	8g#X/	2	.
.	.	.	8b/J	4	.
=5	=5	=5	=5	=5	=5
4C/	.	.	4a/)	3	.
4AA/	.	.	4r	.	.
4E\	.	.	4cc\	5	.
=6	=6	=6	=6	=6	=6
4D#X/	1	.	(4.b\	4	.
4BB/	.	.	.	.	.
.	.	.	8a/L	3	.
4D#/	.	.	8g/	1	.
.	.	.	8f#X/J	2	.
=7	=7	=7	=7	=7	=7
4E\	.	.	8g/L	.	.
.	.	.	8f#X/	.	.
4D#X\	.	.	8g/	.	.
.	.	.	8a/	.	.
[4Dn\	.	.	8b/	.	.
.	.	.	8g/J	.	.
=8	=8	=8	=8	=8	=8
4D/]	.	.	4e/)	.	.
4C#X/	.	.	(>2a/	5	.
4Cn/	1	.	.	.	.
=9	=9	=9	=9	=9	=9
4BB/	.	.	4.d#X/	.	.
4AA#X/	.	.	.	.	.
.	.	.	8e/L	.	.
[4AAn/	1	.	8f#X/	.	.
.	.	.	8d#/J	.	.
=10	=10	=10	=10	=10	=10
4AA/]	.	.	4B/)	.	.
4GG#X/	.	.	[2e/	3	.
4GGn/	.	.	.	.	.
=11	=11	=11	=11	=11	=11
4FF#X/	1	.	4.e/]	.	<
4AA/	2	.	.	.	.
!	!	!	!LO:TX:b:i:t=poco a poco	!	!
.	.	.	8g/L	.	.
4C/	1	.	8f#X/	.	.
.	.	.	8e/J	.	.
=12	=12	=12	=12	=12	=12
4BB/	4	.	4.d#X/	.	.
4C#X/	.	.	.	.	.
.	.	.	8a/L	5	.
4D#X\	.	.	8g/	.	.
.	.	.	8f#X/J	.	.
=13	=13	=13	=13	=13	=13
4E\	1	.	4.g/	.	.
4F#X\	3	.	.	.	.
.	.	.	(8e/	.	.
4G\	2	.	[4ee\)	.	.
=14	=14	=14	=14	=14	=14
4A\	1	.	4.ee\]	.	.
4B\	3	.	.	.	.
.	.	.	(8e/	.	.
4c\	2	.	4ee\)	.	.
!LO:LB:g=original	!	!	!	!	!
=15	=15	=15	=15	=15	=15
4B\	3	.	(8dd#X\L	3	.
.	.	.	8ee\	4	.
4A\	4	.	8ff#X\	5	.
.	.	.	8cc\	2	.
4G\	1	.	8b\	1	.
.	.	.	8ee\J	5	.
=16	=16	=16	=16	=16	=16
4F#X\	2	.	8a/L	2	.
.	.	.	8b/	.	.
4E\	3	.	8cc/	.	.
.	.	.	8g/	1	.
4D#X\	4	.	8f#X/	2	.
.	.	.	8cc/J	5	.
=17	=17	=17	=17	=17	=17
!	!	!	!	!	!LO:HP:t=dim&colon;
4Dn/	1	.	8b/L	4	>
.	.	.	8fn/	2	.
4C#X/	3	.	8e/	1	.
.	.	.	8d#X/	2	.
4Cn/	4	.	8e/	3	.
.	.	.	8f#X/J	4	.
=18	=18	=18	=18	=18	=18
4BB/	5	.	4.g/	.	.
4B\	.	.	.	.	.
.	.	.	8f#X/L	.	.
4A\	.	.	8e/	.	.
.	.	.	8d#X/J)	.	.
=19	=19	=19	=19	=19	=19
8G\	.	.	4e/	.	.
8r	.	.	.	.	.
4r	.	.	(4b\	5	p
4r	.	.	4a/	.	.
=20	=20	=20	=20	=20	=20
8r	.	.	4g/	.	.
(8D#X\L	4	.	.	.	.
8E\	.	.	4f#X/	.	<
8F#X\	.	.	.	.	.
8G\	1	.	[4e/	.	.
8A\J	3	.	.	.	.
=21	=21	=21	=21	=21	=21
8B\L	.	.	4e/]	.	.
8A\	.	.	.	.	.
8B\	.	.	4d#X/	.	.
8c\	.	.	.	.	.
8B\	2	.	4f#X/	.	[[
8A\J	1	.	.	.	.
=22	=22	=22	=22	=22	=22
8G#X\L	3	.	2b\)	.	>
8F#X\	.	.	.	.	.
8G#\	.	.	.	.	.
8A\	.	.	.	.	.
8B\	.	.	([4dn/	.	.
8G#\J	.	.	.	.	.
=23	=23	=23	=23	=23	=23
4E\)	.	.	4d/]	.	.
(4e\	.	p	8c/)	.	]
.	.	.	8r	.	.
4d\	.	.	4r	.	.
=24	=24	=24	=24	=24	=24
4c\	.	.	8r	.	.
.	.	.	(8g#X\L	2	.
4B\	1	.	8a\	3	.
.	.	.	8b\	1	.
[4A\	3	.	8cc\	2	.
.	.	.	8dd\J	3	.
=25	=25	=25	=25	=25	=25
4A\]	.	.	8ee\L	.	.
.	.	.	8dd\	.	.
4G#X\	.	.	8ee\	.	.
.	.	.	8ffn\	.	.
4B\	.	.	8ee\	.	.
.	.	.	8dd\J	.	.
=26	=26	=26	=26	=26	=26
4e\)	.	.	8cc#X\L	.	.
.	.	.	8b\	1	.
[(2Gn\	3	.	8cc#\	3	.
.	.	.	8dd\	.	.
.	.	.	8ee\	.	.
.	.	.	8cc#\J	.	.
=27	=27	=27	=27	=27	=27
8G\L]	.	.	4a/)	.	.
8E\	.	.	.	.	.
8F#X\	.	.	([2dd\	4	<
8A\	.	.	.	.	.
8B\	.	.	.	.	.
8c\J	2	.	.	.	.
!LO:LB:g=original	!	!	!	!	!
=28	=28	=28	=28	=28	=28
4B\)	.	.	4.dd\]	.	.
(4e\	.	.	.	.	.
.	.	.	8b\L	.	.
[4A\	.	.	8cc\	.	.
.	.	.	8dd\J	.	.
=29	=29	=29	=29	=29	=29
8A\L]	.	.	4b\)	.	.
8F#X\	.	.	.	.	.
8G#X\	3	.	([2ee\	5	.
8B\	1	.	.	.	.
8c\	3	.	.	.	.
8d\J	2	.	.	.	.
=30	=30	=30	=30	=30	=30
4c\)	.	.	4.ee\]	.	.
(4f\	1	.	.	.	.
.	.	.	8cc#X\L	2	.
8B\L	2	.	8dd\	3	.
8A\J	3	.	8ff\J	5	.
=31	=31	=31	=31	=31	=31
8G#X\L	4	.	8ee\L	.	.
8B\	1	.	8dd\	.	.
8A\	.	.	8cc\	.	<
8Gn\	.	.	8ee\	.	.
8F\	4	.	8dd\	.	.
8A\J	1	.	8cc\J	.	.
=32	=32	=32	=32	=32	=32
8G\L	.	.	8b\L	1	.
8F\	.	.	8dd\	4	.
8E\	4	.	8cc\	.	.
8G\	1	.	8b\	.	.
8F\	.	.	8a\	1	[
8E\J	.	.	8cc\J	5	.
=33	=33	=33	=33	=33	=33
8D\L	.	.	4.b\)	.	.
8E\J	.	.	.	.	.
[2F\	.	.	.	.	.
.	.	.	(8a/L	.	>
.	.	.	8g#X/	.	.
.	.	.	8a/J	.	.
=34	=34	=34	=34	=34	=34
4F\]	.	.	2b\)	5	.
8E/L	.	.	.	.	.
8D/	.	.	.	.	.
8C/	.	.	[4e/	2	]
8BB/J)	.	.	.	.	.
=35	=35	=35	=35	=35	=35
(4AA/	.	.	2e/]	.	p
4BB/	.	.	.	.	.
!	!	!	!LO:TX:a:i:t=espress.	!	!
4C/	.	.	[4e/	.	.
=36	=36	=36	=36	=36	=36
4BB/	4	.	4e/]	.	.
4C/	1	.	4a/	.	.
4GG#X/)	4	.	(4b/	2	.
=37	=37	=37	=37	=37	=37
(4AA/	.	.	8cc\L	.	.
.	.	.	8ee\	.	.
4BB/	.	.	8dd\	.	.
.	.	.	8cc\	.	.
4C/	.	.	8b\	.	.
.	.	.	8a\J	.	.
=38	=38	=38	=38	=38	=38
4BB/	4	.	4.dd\	5	>
4E\	.	.	.	.	.
.	.	.	8b/L	3	.
4D/	.	.	8g#X/	2	.
.	.	.	8b/J	3	]]
=39	=39	=39	=39	=39	=39
4C/)	.	.	4a/)	1	p
(4AA/	5	.	4r	.	.
4E/	2	.	(4cc\	4	.
=40	=40	=40	=40	=40	=40
4D/	.	.	4.b-X\	.	.
4C/	.	.	.	.	.
.	.	.	8a/L	.	.
4E\	.	.	8g/	.	.
.	.	.	8b-/J	.	.
!LO:LB:g=original	!	!	!	!	!
=41	=41	=41	=41	=41	=41
4F\)	1	.	4a/)	.	.
(4D\	4	.	4r	.	.
4F\	2	.	(4dd\	5	.
=42	=42	=42	=42	=42	=42
4E-X\	.	.	4.cc\	.	.
4D\	.	.	.	.	.
.	.	.	8b-X\L	.	.
4F#X\	.	.	8a\	.	.
.	.	.	8cc\J	.	.
=43	=43	=43	=43	=43	=43
4G\	.	.	8b-X\L	3	<
.	.	.	8a\	.	.
!LO:TX:b:i:t=sempre legato	!	!	!	!	!
4F#X\	.	.	8b-\	.	.
!	!	!	!LO:TX:b:i:t=un poco	!	!
.	.	.	8cc\	.	.
[4Fn\)	.	.	8dd\	5	.
.	.	.	8a\J	2	.
=44	=44	=44	=44	=44	=44
4F\]	.	.	4g/)	.	.
4E\	1	.	(2cc\	5	.
4E-X\	.	.	.	.	.
=45	=45	=45	=45	=45	=45
4D\	.	.	8f/L	1	.
.	.	.	8e/	2	.
4C#X/	.	.	8f/	3	.
.	.	.	8g/	4	.
4Cn/	1	.	8a/	5	.
.	.	.	8e/J	2	.
=46	=46	=46	=46	=46	=46
4.BB/	3	.	4d/	.	.
.	.	.	(2f/)	3	.
8C/L	2	.	.	.	.
8BB/	1	.	.	.	.
8AA/J	2	.	.	.	.
=47	=47	=47	=47	=47	=47
4GG#X/	3	.	4.e/)	.	.
4FF#X/	4	.	.	.	.
.	.	.	(8dd\L	.	.
4GG#/	3	.	8cc\	.	.
.	.	.	8b\J	.	.
=48	=48	=48	=48	=48	=48
4AA/	.	.	8cc#X\L	.	<
.	.	.	8b\	.	.
4BB/	1	.	8cc#\	.	.
.	.	.	8dd\	.	.
4C#X/	3	.	8ee\	5	.
.	.	.	8g\J	1	[[
=49	=49	=49	=49	=49	=49
4D/	.	.	8f\L)	2	.
.	.	.	(8ff\	5	.
4BB/	.	.	8dd\	4	.
.	.	.	8cc\	3	.
4D/	.	.	8b\	2	.
.	.	.	8a\J	1	.
=50	=50	=50	=50	=50	=50
!	!	!	!LO:TX:b:i:t=ritard. un poco	!	!
8E/L	.	.	8g#X/L	3	.
8D/	.	.	16f#X/L	2	.
.	.	.	16g#/JJ	3	.
8C/	.	.	4.a/	1	.
8AA/	.	.	.	.	.
8F/	1	.	.	.	.
8D/J	2	.	8b\	3	.
=51	=51	=51	=51	=51	=51
4.E\	1	.	4cc\	5	.
.	.	.	4f#X/	2	>
8D\	.	.	.	.	.
8C/L	.	.	4g#Xt/	3	.
8BB/J	.	.	.	.	.
.	.	.	16qqf#/LL	.	.
.	.	.	16qqg#/JJ	.	.
=52	=52	=52	=52	=52	=52
2.AA/	.	.	2.a/)	.	]]
==	==	==	==	==	==
*-	*-	*-	*-	*-	*-
!!!system-decoration: {(s1,s2)}
!!!RDF**kern: > = above
!!!RDF**kern: < = below
!!!ENC: Filip Voros
!!!END: 2022-03-10
!!!ENC: Natalia Wrzos
!!!END: 2022-03-15
